packages/icons/web/visa_large.svg

<svg width="24" height="24" viewBox="0 0 24 24" fill="none" xmlns="http://www.w3.org/2000/svg">
<path fill-rule="evenodd" clip-rule="evenodd" d="M10.6704 15.3807H9.03809L10.0584 9.11218H11.6907L10.6704 15.3807Z" fill="#005C9C"/>
<path fill-rule="evenodd" clip-rule="evenodd" d="M7.66521 9.11217L6.10919 13.4234L5.92525 12.495L5.92542 12.4953L5.37612 9.67673C5.37612 9.67673 5.30989 9.11217 4.60197 9.11217H2.03001L2 9.21814C2 9.21814 2.78673 9.38179 3.70692 9.93495L5.12477 15.3805H6.82516L9.42159 9.11217H7.66521ZM18.7057 13.1632L19.5634 10.8173L20.0458 13.1632H18.7057ZM20.5015 15.3805H22L20.6935 9.11217H19.3814C18.7755 9.11217 18.6281 9.57931 18.6281 9.57931L16.1943 15.3805H17.8952L18.2355 14.4496H20.3102L20.5015 15.3805ZM16.3219 10.6196L16.5546 9.27331C16.5546 9.27331 15.836 9 15.0868 9C14.2769 9 12.3539 9.35413 12.3539 11.0751C12.3539 12.6947 14.6109 12.7148 14.6109 13.5651C14.6109 14.4154 12.5864 14.2635 11.9184 13.7271L11.6756 15.1344C11.6756 15.1344 12.4042 15.4885 13.5179 15.4885C14.6314 15.4885 16.3117 14.9115 16.3117 13.3424C16.3117 11.7126 14.0341 11.5609 14.0341 10.8523C14.0341 10.1437 15.6235 10.2348 16.3219 10.6196Z" fill="#005C9C"/>
<path fill-rule="evenodd" clip-rule="evenodd" d="M5.92542 12.4953L5.37612 9.67674C5.37612 9.67674 5.30989 9.11218 4.60197 9.11218H2.03001L2 9.21815C2 9.21815 3.23626 9.47453 4.42222 10.4343C5.5557 11.3518 5.92542 12.4953 5.92542 12.4953Z" fill="#EE9F3F"/>
</svg>

<svg width="24" height="24" fill="none" xmlns="http://www.w3.org/2000/svg">
    <path fill-rule="evenodd" clip-rule="evenodd" d="M10.67 15.38H9.038l1.02-6.268h1.633l-1.02 6.269zM7.665 9.112L6.11 13.423l-.184-.928-.549-2.818s-.066-.565-.774-.565H2.03L2 9.218s.787.164 1.707.717l1.418 5.445h1.7l2.597-6.268H7.665zm11.04 4.051l.858-2.346.483 2.346h-1.34zm1.797 2.217H22l-1.306-6.268H19.38c-.605 0-.753.467-.753.467l-2.434 5.801h1.701l.34-.93h2.075l.192.93zm-4.18-4.76l.233-1.347S15.836 9 15.087 9c-.81 0-2.733.354-2.733 2.075 0 1.62 2.257 1.64 2.257 2.49 0 .85-2.025.699-2.693.162l-.242 1.407s.728.354 1.842.354c1.113 0 2.794-.576 2.794-2.146 0-1.63-2.278-1.781-2.278-2.49 0-.708 1.59-.617 2.288-.232z" fill="#005C9C"/>
    <path fill-rule="evenodd" clip-rule="evenodd" d="M5.925 12.495l-.549-2.818s-.066-.565-.774-.565H2.03L2 9.218s1.236.257 2.422 1.216c1.134.918 1.503 2.061 1.503 2.061z" fill="#EE9F3F"/>
</svg>
